X:134
T:The Mouth of Fools Doth God Confess
%%stretchlast false
M:4/4
L:1/4
K:F clef=C1
"^I"[F,CAf]2 [F,CAf] "^ii¹"[B,DGd] | "^iii"[A,EAc] "^vi"[DFAf] "^V"[CEcg] "^I"[F,Fca] | "^IV"[B,Fdf]2 "^i"[Fc] "^vi"[DAdf] | "^IVmaj7"[B,Adf] "^iii"[A,Dcg] [G,Eda] "^v7"[CGcb] | "^V"[CEcg] "^I"[F,EAg] [F,FAf] [F,FAf] | [F,CAf] [F,CAf] "^ii"[B,CGf] "^vi"[A,DAd] | "^iii"[DEAc] "^i"[CFcf] "^V"[F,Ecg] "^IVmaj7"[B,Fda] | "^IV"[B,Fdf] "^i"[Fcf] "^vi"[Dd] "^IVmaj7"[B,Adf] | "^I¹"[A,Acf] "^ii"[G,Ddg] "^iii¹"[CEca] "^v7"[CGcb] | "^I"[F,EAg]2 "^I¹"[A,Fcf] "^iv"[B,FBf] | "^v"[CG] "^vi"[DFdf] "^ii7"[G,FBd] "^iii"[A,EAe]/4 [B,EAe]/4 "^iii¹"[CEAe]/ | "^I"[G,GAf] "^v"[CGd] "^V"[CEGc] "^vi"[DFA=B] | "^V"[DEcd] [B,Ecd] "^iii"[A,c] "^vi"[G,Fcd] | [DFdf] "^ii"[DGdg]/ [DGeg]/ "^I7³"[EFfa] "^ii7³"[FGfb] | "^Imaj7³"[EFca] "^ii7²"[DBfg] "^iii"[Gcda] "^iii²"[Eca] | "^i"[Fc] "^ii¹"[B,Gdg]/ "^ii"[DGdg]/ "^iii¹"[Cdea] "^iv"[F,Bcb] | [F,Gcc'] "^I"[F,Aca] "^ii"[F,Bcg]/ "^I"[F,Acf]/ "^v"[cg] | "^I¹"[Af]4 |]
